X:73
T:Ladies Play Thing, The
M:6/8
L:1/8
B:Thompson's Compleat Collection of 200 Favourite Country Dances, vol. 3 (London, 1773)
Z:Transcribed and edited by Flynn Titford-Mock, 2007
Z:abc's:AK/Fiddler's Companion
K:G
d/c/ | B2B Bcd | A2A A2d | G2G GAB | A3 D2d | dgd BdB | GBG D2c |
BcB AGA | G2G G2::d | dBd dBd | e2e e2c | cAc cAc | d2d d2d | BGB BGB |
c2c c2c | Bc(d d)cB | (B3 A2)d | dgd BdB | GBG D2c | BcB AGA | G2G G2 :|

